image/Vector-2.svg

<svg width="50" height="50" viewBox="0 0 50 50" fill="none" xmlns="http://www.w3.org/2000/svg">
<path fill-rule="evenodd" clip-rule="evenodd" d="M6.76724 0C3.03082 0 0.00183105 3.05262 0.00183105 6.81819V15.9091V18.1818V38.6364C0.00183105 42.4021 3.03082 45.4546 6.76724 45.4546H13.5327C14.7781 45.4546 15.7878 44.4371 15.7878 43.1818C15.7878 41.9266 14.7781 40.9091 13.5327 40.9091H6.76724C5.52178 40.9091 4.51211 39.8916 4.51211 38.6364V18.1818V15.9091C4.51211 14.6539 5.52178 13.6364 6.76724 13.6364H24.314H28.191H43.075C44.196 13.6364 45.1046 14.5521 45.1046 15.6818V15.9091C45.1046 17.1643 46.1142 18.1818 47.3597 18.1818C48.6052 18.1818 49.6148 17.1643 49.6148 15.9091V15.6818C49.6148 12.0418 46.6868 9.09091 43.075 9.09091H28.191H24.314L23.34 5.16453C22.587 2.1293 19.881 0 16.7766 0H6.76724ZM6.76724 9.09091C5.9765 9.09091 5.21747 9.22762 4.51211 9.47889V6.81819C4.51211 5.563 5.52178 4.54546 6.76724 4.54546H16.7766C17.8114 4.54546 18.7134 5.25523 18.9644 6.26696L19.6649 9.09091H6.76724ZM47.6333 22.0616C44.9911 19.3989 40.7077 19.3989 38.0656 22.0616L34.2774 25.8793L23.2137 37.0293C22.9246 37.3207 22.7196 37.6855 22.6206 38.0852L20.3655 47.1762C20.1733 47.9505 20.3984 48.7698 20.9586 49.3343C21.5188 49.8989 22.3317 50.1257 23.1001 49.9321L32.1206 47.6593C32.5173 47.5596 32.8792 47.353 33.1684 47.0616L44.1024 36.0423L48.0202 32.0939C50.6624 29.4312 50.6624 25.1143 48.0202 22.4516L47.6333 22.0616ZM41.2548 25.2757C42.1355 24.3882 43.5634 24.3882 44.444 25.2757L44.831 25.6657C45.7117 26.5532 45.7117 27.9923 44.831 28.8798L42.5387 31.19L39.031 27.5168L41.2548 25.2757ZM35.8411 30.7316L39.3488 34.4048L30.4209 43.4023L25.6527 44.6037L26.8447 39.7982L35.8411 30.7316Z" fill="#BB2A2F"/>
</svg>

<svg xmlns="http://www.w3.org/2000/svg" width="50" height="50" fill="none"><path fill="#BB2A2F" fill-rule="evenodd" d="M6.767 0C3.031 0 .002 3.053.002 6.818V38.636c0 3.766 3.029 6.819 6.765 6.819h6.766a2.264 2.264 0 0 0 2.255-2.273 2.264 2.264 0 0 0-2.255-2.273H6.767a2.264 2.264 0 0 1-2.255-2.273V15.91a2.264 2.264 0 0 1 2.255-2.273h36.308c1.121 0 2.03.916 2.03 2.046v.227a2.264 2.264 0 0 0 2.255 2.273 2.264 2.264 0 0 0 2.255-2.273v-.227c0-3.64-2.928-6.591-6.54-6.591H24.314l-.974-3.926C22.587 2.129 19.881 0 16.777 0H6.767Zm0 9.09c-.79 0-1.55.138-2.255.389v-2.66a2.264 2.264 0 0 1 2.255-2.274h10.01c1.034 0 1.936.71 2.187 1.722l.7 2.824H6.768Zm40.866 12.972a6.728 6.728 0 0 0-9.567 0l-3.789 3.817-11.063 11.15c-.29.292-.494.656-.593 1.056l-2.255 9.091a2.284 2.284 0 0 0 .593 2.158c.56.565 1.373.792 2.141.598l9.02-2.273c.397-.1.76-.306 1.048-.597l10.934-11.02 3.918-3.948c2.642-2.663 2.642-6.98 0-9.642l-.387-.39Zm-6.378 3.214a2.243 2.243 0 0 1 3.189 0l.387.39c.88.887.88 2.326 0 3.214l-2.292 2.31-3.508-3.673 2.224-2.241Zm-5.414 5.456 3.508 3.673-8.928 8.997-4.768 1.202 1.192-4.806 8.996-9.066Z" clip-rule="evenodd"/></svg>
